X:1
T:Blue Skies
T:Blue Skies (from BETSY)
T:Words and Music by Irving Berlin
T:Arranged by R. Emerson Adapted for LoVos by M. Bella (Jan 2020) 
%%score [ 1 2 3 ]
L:1/8
Q:1/4=148
M:4/4
K:F
V:1 treble nm="Soprano"
V:2 treble nm="Alto"
V:3 bass nm="Baritone"
V:1
|:!mp!"^Swing" D3 A- A4- | A4 GF G2 | A8- | A2 z2 GF G2 | A3 C- C4- | C4 C D2 F- | F8 | z8 | %8
w: Blue skies _|_ 'smil- in at|me|* No- thin' but|blue skies _|_ do I see.|_||
!mf! D3 A- A4- | A4 GF G2 | A8- | A2 z2 GF G2 | A3 C- C4- | C4 C D2 F- | F8 | z8 | FGAB c4 | %17
w: Blue birds _|_ sing- in' a|song|* Noth- in' but|Blue birds _|_ all day long.|_||Ne- ver saw the sun|
 _dcBc- c4 | BAGA- A4 | GFEF- F4 | FGAB c4 | _dcBc- c4 | BAGA- A4 | GFEF- F2 E2 | =D3 A- A4- | %25
w: shin- in' so bright, _|nev- er saw things _|go- in' so right. _|No- tic- ing the days|hur- ry- ing by, _|when you're in love, _|my how they fly. _ _|Blue days _|
 A4 GFGA- | A8- | A2 z2 GF G2 | A3 C- C4- | C4 C D2 F- | F8 | z8 :|!mf! D3 A- A4- | A4 GFGA- | %34
w: _ all of them gone.|_|* Noth- in' but|blue skies _|_ from now on.|_||Blue days _|_ all of them gone.|
 A8- | A2 z2 GFGA- | A3 c- c4- | c6 z2 | !>!c6 z2 | !>!c6 z2 |!f! c8- | c8- | c8- | !fermata!c8 |] %44
w: _|* Noth- in' but blue|_ skies _|_|from|now|on!|_|||
V:2
|: z8 | z8 | z8 | z8 | z8 | z8 | z8 | z8 |"_A \n2nd verse\nonly\n" D8 | ^C8 | =C8 | =B,8 | %12
w: ||||||||Ooh|_|||
 C3 A,- (A,4 | B,4) B, B,2 A,- | A,8 | z8 | FGFG A4 | BBBA- A4 | GGGF- F4 | FF_DC- C2 z2 | %20
w: Blue birds _|_ all day long.|_||Ne- ver saw the sun|shin- in' so bright, _|nev- er saw things _|go- in' so right. _|
 FGFG A4 | BBBA- A4 | GGGF- F4 | FF_DC- C4 | D8 | ^C8 | =C8 | =B,8 | C3 A,- (A,4 | %29
w: No- tic- ing the days|hur- ry- ing by, _|when you're in love, _|my how they fly. _|Ooh|_|||Blue skies _|
 B,4) B, B,2 A,- | A,8 | z8 :| z8 | z8 | z8 | A2 z2 GFGE- | E3 G- G4- | G6 z2 | !>!F6 z2 | %39
w: _ from now on|_|||||* Noth- in' but blue|_ skies _|_|from|
 !>!F6 z2 |!f! G8- | G8- | G8- | !fermata!G8 |] %44
w: now|on!|_|||
V:3
|: z8 | z8 | z8 | z8 | z8 | z8 | z8 | z8 | z8 | z8 | z8 | z8 | z8 | z8 | z8 | z8 | z8 | z8 | z8 | %19
w: |||||||||||||||||||
 z8 | z8 | z8 | z8 | z8 | z8 | z8 | z8 | z8 | z8 | z8 | z8 | z8 :|[K:treble] z6!mf! D^C- | C8 | %34
w: |||||||||||||Blue days|_|
 z4 =CDC=B,- | B,2 z2 =B,B,B,C- | C3 A,- A,4- | A,6 z2 | !>!B,6 z2 | !>!B,6 z2 |!f! A,8- | A,8- | %42
w: all of them gone.|_ Noth- in' but blue|_ skies _|_|from|now|on!|_|
 A,8- | !fermata!A,8 |] %44
w: ||

